motocrosskursk/img/icons/mail.svg

<svg width="17" height="16" viewBox="0 0 17 16" fill="none" xmlns="http://www.w3.org/2000/svg">
<path d="M15.2505 5.02905C15.2652 5.443 15.6127 5.76663 16.0267 5.75189C16.4406 5.73715 16.7643 5.38962 16.7495 4.97567L15.2505 5.02905ZM11.714 1.00236V1.75236C11.7224 1.75236 11.7307 1.75222 11.7391 1.75194L11.714 1.00236ZM5.286 1.00236L5.26095 1.75194C5.2693 1.75222 5.27765 1.75236 5.286 1.75236V1.00236ZM0.250475 4.97567C0.235735 5.38962 0.559359 5.73715 0.97331 5.75189C1.38726 5.76663 1.73478 5.443 1.74952 5.02905L0.250475 4.97567ZM16.75 5.00236C16.75 4.58815 16.4142 4.25236 16 4.25236C15.5858 4.25236 15.25 4.58815 15.25 5.00236H16.75ZM16 11.0024L16.7495 11.029C16.7498 11.0202 16.75 11.0113 16.75 11.0024H16ZM11.714 15.0024L11.7391 14.2528C11.7307 14.2525 11.7224 14.2524 11.714 14.2524V15.0024ZM5.286 15.0024V14.2524C5.27765 14.2524 5.2693 14.2525 5.26095 14.2528L5.286 15.0024ZM1 11.0024H0.25C0.25 11.0113 0.250158 11.0202 0.250475 11.029L1 11.0024ZM1.75 5.00236C1.75 4.58815 1.41421 4.25236 1 4.25236C0.585786 4.25236 0.25 4.58815 0.25 5.00236H1.75ZM16.3783 5.64996C16.736 5.44103 16.8565 4.98172 16.6476 4.62406C16.4387 4.2664 15.9794 4.14583 15.6217 4.35476L16.3783 5.64996ZM10.736 8.07736L10.3577 7.42973L10.3515 7.43345L10.736 8.07736ZM6.264 8.07736L6.64856 7.43342L6.6423 7.42976L6.264 8.07736ZM1.3783 4.35476C1.02064 4.14583 0.561328 4.2664 0.352398 4.62406C0.143468 4.98172 0.264038 5.44103 0.621699 5.64996L1.3783 4.35476ZM16.7495 4.97567C16.6534 2.27536 14.3895 0.16252 11.6889 0.252779L11.7391 1.75194C13.6129 1.68931 15.1838 3.15537 15.2505 5.02905L16.7495 4.97567ZM11.714 0.252361H5.286V1.75236H11.714V0.252361ZM5.31105 0.252779C2.61054 0.16252 0.34663 2.27536 0.250475 4.97567L1.74952 5.02905C1.81625 3.15537 3.38712 1.68931 5.26095 1.75194L5.31105 0.252779ZM15.25 5.00236V11.0024H16.75V5.00236H15.25ZM15.2505 10.9757C15.1838 12.8494 13.6129 14.3154 11.7391 14.2528L11.6889 15.7519C14.3895 15.8422 16.6534 13.7294 16.7495 11.029L15.2505 10.9757ZM11.714 14.2524H5.286V15.7524H11.714V14.2524ZM5.26095 14.2528C3.38712 14.3154 1.81624 12.8494 1.74952 10.9757L0.250475 11.029C0.34663 13.7294 2.61054 15.8422 5.31105 15.7519L5.26095 14.2528ZM1.75 11.0024V5.00236H0.25V11.0024H1.75ZM15.6217 4.35476L10.3577 7.42976L11.1143 8.72496L16.3783 5.64996L15.6217 4.35476ZM10.3515 7.43345C9.21109 8.11447 7.78891 8.11447 6.64854 7.43345L5.87946 8.72127C7.49352 9.68519 9.50647 9.68519 11.1205 8.72127L10.3515 7.43345ZM6.6423 7.42976L1.3783 4.35476L0.621699 5.64996L5.8857 8.72496L6.6423 7.42976Z" fill="#F4510C"/>
</svg>

<svg width="17" height="16" fill="none" xmlns="http://www.w3.org/2000/svg"><path d="M15.25 5.029a.75.75 0 101.5-.053l-1.5.053zm-3.536-4.027v.75a.75.75 0 00.025 0l-.025-.75zm-6.428 0l-.025.75h.025v-.75zM.25 4.976a.75.75 0 001.5.053l-1.5-.053zm16.5.026a.75.75 0 00-1.5 0h1.5zm-.75 6l.75.027v-.027H16zm-4.286 4l.025-.75a.7.7 0 00-.025 0v.75zm-6.428 0v-.75h-.025l.025.75zm-4.286-4H.25a.74.74 0 000 .027l.75-.027zm.75-6a.75.75 0 00-1.5 0h1.5zm14.628.648a.75.75 0 10-.756-1.295l.756 1.295zm-5.642 2.427l-.378-.647-.007.003.385.644zm-4.472 0l.385-.644-.007-.003-.378.647zM1.378 4.355A.75.75 0 00.622 5.65l.756-1.295zm15.372.62A4.9 4.9 0 0011.689.254l.05 1.499A3.4 3.4 0 0115.25 5.03l1.5-.053zM11.714.253H5.286v1.5h6.428v-1.5zm-6.403 0a4.9 4.9 0 00-5.06 4.724l1.499.053a3.4 3.4 0 013.51-3.278l.05-1.5zm9.939 4.75v6h1.5v-6h-1.5zm0 5.974a3.4 3.4 0 01-3.51 3.277l-.051 1.499a4.9 4.9 0 005.06-4.723l-1.498-.053zm-3.536 3.276H5.286v1.5h6.428v-1.5zm-6.453 0a3.4 3.4 0 01-3.511-3.276l-1.5.053a4.9 4.9 0 005.061 4.723l-.05-1.5zm-3.511-3.25v-6H.25v6h1.5zm13.872-6.647L10.358 7.43l.756 1.295 5.264-3.075-.756-1.295zm-5.27 3.078a3.611 3.611 0 01-3.703 0l-.77 1.288a5.11 5.11 0 005.242 0l-.77-1.288zm-3.71-.003L1.378 4.355.622 5.65l5.264 3.075.756-1.295z" fill="#F4510C"/></svg>
